public/images/website/facebook.svg

<?xml version="1.0" encoding="UTF-8"?>
<svg width="48px" height="48px" viewBox="0 0 48 48" version="1.1" xmlns="http://www.w3.org/2000/svg" xmlns:xlink="http://www.w3.org/1999/xlink">
    <!-- Generator: Sketch 53.2 (72643) - https://sketchapp.com -->
    <title>facebook</title>
    <desc>Created with Sketch.</desc>
    <g id="Page-1" stroke="none" stroke-width="1" fill="none" fill-rule="evenodd">
        <g id="Facebook">
            <g id="Group-2">
                <rect id="Rectangle" fill="#3B5998" x="0" y="0" width="48" height="48" rx="24"></rect>
                <path d="M31.1792,11.3344 C29.744,11.04 28.64,10.8192 27.1312,10.8192 C22.7888,10.8192 21.0592,12.88 21.0592,16.56 L21.0592,19.2464 L18.336,19.2464 L18.336,23.5888 L21.0592,23.5888 L21.0592,36.8 L26.3584,36.8 L26.3584,23.5888 L30.2224,23.5888 L30.5904,19.2464 L26.3584,19.2464 L26.3584,17.1488 C26.3584,15.9712 26.4688,15.2352 28.1616,15.2352 C28.7872,15.2352 29.7808,15.3456 30.5168,15.4928 L31.1792,11.3344 Z" id="f" fill="#FFFFFF"></path>
            </g>
        </g>
    </g>
</svg>

<svg width="48" height="48" xmlns="http://www.w3.org/2000/svg"><g fill="none" fill-rule="evenodd"><rect fill="#3B5998" width="48" height="48" rx="24"/><path d="M31.18 11.334c-1.436-.294-2.54-.515-4.049-.515-4.342 0-6.072 2.061-6.072 5.741v2.686h-2.723v4.343h2.723V36.8h5.3V23.589h3.863l.368-4.343h-4.232V17.15c0-1.178.11-1.914 1.804-1.914.625 0 1.619.11 2.355.258l.662-4.159z" fill="#FFF"/></g></svg>
